public/images/hashed/44b60612a155218cd67205aa215ac8f7.svg

<svg xmlns="http://www.w3.org/2000/svg" width="80" height="80"><defs><linearGradient id="a" x1="0%" x2="100%" y1="100%" y2="0%"><stop offset="0%" stop-color="#C8511B"/><stop offset="100%" stop-color="#F90"/></linearGradient></defs><g fill="none" fill-rule="evenodd"><path fill="url(#a)" d="M0 0h80v80H0z"/><path fill="#FFF" d="m21.621 32.018-1.73-1.001A18.1 18.1 0 0 1 35.513 22c6.339 0 12.098 3.235 15.405 8.653l-1.707 1.042C46.27 26.877 41.149 24 35.513 24a16.099 16.099 0 0 0-13.892 8.018ZM49.199 48.25l1.731 1.001c-3.217 5.562-9.203 9.017-15.621 9.017-6.341 0-12.1-3.234-15.407-8.653l1.707-1.042c2.941 4.819 8.062 7.695 13.7 7.695a16.095 16.095 0 0 0 13.89-8.018Zm18.633-4.561-2 3-1.664-1.109.963-1.446H57v2a1 1 0 0 1-1 1H44a1 1 0 0 1-1-1v-3h-1v3a1 1 0 0 1-1 1H29a1 1 0 0 1-1-1v-3h-1v3a1 1 0 0 1-1 1H14a1 1 0 0 1-1-1v-12a1 1 0 0 1 1-1h12a1 1 0 0 1 1 1v4h1v-4a1 1 0 0 1 1-1h12a1 1 0 0 1 1 1v4h1v-4a1 1 0 0 1 1-1h12a1 1 0 0 1 1 1v2h4.131l-.963-1.445 1.664-1.109 2 3a1 1 0 0 1 0 1.109l-2 3-1.664-1.109.963-1.446H56a1 1 0 0 1-1-1v-2H45v4a1 1 0 0 1-1 1h-3a1 1 0 0 1-1-1v-4H30v4a1 1 0 0 1-1 1h-3a1 1 0 0 1-1-1v-4H15v10h10v-3a1 1 0 0 1 1-1h3a1 1 0 0 1 1 1v3h10v-3a1 1 0 0 1 1-1h3a1 1 0 0 1 1 1v3h10v-2a1 1 0 0 1 1-1h9.131l-.963-1.445 1.664-1.109 2 3a1 1 0 0 1 0 1.109ZM48 42.134h4v-4h-4v4Zm-1-6a1 1 0 0 0-1 1v6a1 1 0 0 0 1 1h6a1 1 0 0 0 1-1v-6a1 1 0 0 0-1-1h-6Zm-14 6h4v-4h-4v4Zm-1-6a1 1 0 0 0-1 1v6a1 1 0 0 0 1 1h6a1 1 0 0 0 1-1v-6a1 1 0 0 0-1-1h-6Zm-14 6h4v-4h-4v4Zm-1-6a1 1 0 0 0-1 1v6a1 1 0 0 0 1 1h6a1 1 0 0 0 1-1v-6a1 1 0 0 0-1-1h-6Z"/></g></svg>

<?xml version="1.0" encoding="UTF-8"?>
<svg width="80px" height="80px" viewBox="0 0 80 80" version="1.1" xmlns="http://www.w3.org/2000/svg" xmlns:xlink="http://www.w3.org/1999/xlink">
    <!-- Generator: Sketch 64 (93537) - https://sketch.com -->
    <title>Icon-Architecture/64/Arch_Amazon-Managed-Blockchain_64</title>
    <desc>Created with Sketch.</desc>
    <defs>
        <linearGradient x1="0%" y1="100%" x2="100%" y2="0%" id="linearGradient-1">
            <stop stop-color="#C8511B" offset="0%"></stop>
            <stop stop-color="#FF9900" offset="100%"></stop>
        </linearGradient>
    </defs>
    <g id="Icon-Architecture/64/Arch_Amazon-Managed-Blockchain_64" stroke="none" stroke-width="1" fill="none" fill-rule="evenodd">
        <g id="Icon-Architecture-BG/64/Blockchain" fill="url(#linearGradient-1)">
            <rect id="Rectangle" x="0" y="0" width="80" height="80"></rect>
        </g>
        <path d="M21.621,32.018 L19.891,31.017 C23.107,25.455 29.094,22 35.513,22 C41.852,22 47.611,25.235 50.918,30.653 L49.211,31.695 C46.27,26.877 41.149,24 35.513,24 C29.806,24 24.482,27.072 21.621,32.018 L21.621,32.018 Z M49.199,48.25 L50.93,49.251 C47.713,54.813 41.727,58.268 35.309,58.268 C28.968,58.268 23.209,55.034 19.902,49.615 L21.609,48.573 C24.55,53.392 29.671,56.268 35.309,56.268 C41.016,56.268 46.338,53.196 49.199,48.25 L49.199,48.25 Z M67.832,43.689 L65.832,46.689 L64.168,45.58 L65.131,44.134 L57,44.134 L57,46.134 C57,46.686 56.553,47.134 56,47.134 L44,47.134 C43.447,47.134 43,46.686 43,46.134 L43,43.134 L42,43.134 L42,46.134 C42,46.686 41.553,47.134 41,47.134 L29,47.134 C28.447,47.134 28,46.686 28,46.134 L28,43.134 L27,43.134 L27,46.134 C27,46.686 26.553,47.134 26,47.134 L14,47.134 C13.447,47.134 13,46.686 13,46.134 L13,34.134 C13,33.582 13.447,33.134 14,33.134 L26,33.134 C26.553,33.134 27,33.582 27,34.134 L27,38.134 L28,38.134 L28,34.134 C28,33.582 28.447,33.134 29,33.134 L41,33.134 C41.553,33.134 42,33.582 42,34.134 L42,38.134 L43,38.134 L43,34.134 C43,33.582 43.447,33.134 44,33.134 L56,33.134 C56.553,33.134 57,33.582 57,34.134 L57,36.134 L61.131,36.134 L60.168,34.689 L61.832,33.58 L63.832,36.58 C64.056,36.915 64.056,37.353 63.832,37.689 L61.832,40.689 L60.168,39.58 L61.131,38.134 L56,38.134 C55.447,38.134 55,37.686 55,37.134 L55,35.134 L45,35.134 L45,39.134 C45,39.686 44.553,40.134 44,40.134 L41,40.134 C40.447,40.134 40,39.686 40,39.134 L40,35.134 L30,35.134 L30,39.134 C30,39.686 29.553,40.134 29,40.134 L26,40.134 C25.447,40.134 25,39.686 25,39.134 L25,35.134 L15,35.134 L15,45.134 L25,45.134 L25,42.134 C25,41.582 25.447,41.134 26,41.134 L29,41.134 C29.553,41.134 30,41.582 30,42.134 L30,45.134 L40,45.134 L40,42.134 C40,41.582 40.447,41.134 41,41.134 L44,41.134 C44.553,41.134 45,41.582 45,42.134 L45,45.134 L55,45.134 L55,43.134 C55,42.582 55.447,42.134 56,42.134 L65.131,42.134 L64.168,40.689 L65.832,39.58 L67.832,42.58 C68.056,42.915 68.056,43.353 67.832,43.689 L67.832,43.689 Z M48,42.134 L52,42.134 L52,38.134 L48,38.134 L48,42.134 Z M47,36.134 C46.447,36.134 46,36.582 46,37.134 L46,43.134 C46,43.686 46.447,44.134 47,44.134 L53,44.134 C53.553,44.134 54,43.686 54,43.134 L54,37.134 C54,36.582 53.553,36.134 53,36.134 L47,36.134 Z M33,42.134 L37,42.134 L37,38.134 L33,38.134 L33,42.134 Z M32,36.134 C31.447,36.134 31,36.582 31,37.134 L31,43.134 C31,43.686 31.447,44.134 32,44.134 L38,44.134 C38.553,44.134 39,43.686 39,43.134 L39,37.134 C39,36.582 38.553,36.134 38,36.134 L32,36.134 Z M18,42.134 L22,42.134 L22,38.134 L18,38.134 L18,42.134 Z M17,36.134 C16.447,36.134 16,36.582 16,37.134 L16,43.134 C16,43.686 16.447,44.134 17,44.134 L23,44.134 C23.553,44.134 24,43.686 24,43.134 L24,37.134 C24,36.582 23.553,36.134 23,36.134 L17,36.134 Z" id="Amazon-Managed-Blockchain-Icon_64_Squid" fill="#FFFFFF"></path>
    </g>
</svg>
